images/site/logo.svg

<svg xmlns="http://www.w3.org/2000/svg" viewBox="0 0 104 43" style="background-color:#ffffff00" width="104" height="43"><path d="M1 1h102v41H1V1zM0 0v43h104V0H0zm72.1 20.8c0 6.8 4.5 11 10.9 11s10.9-4.2 10.9-11c0-6.5-4.5-10.6-10.9-10.6s-10.9 4.1-10.9 10.6zm3.8 0c0-4.3 3.2-7.7 7.1-7.7 3.9 0 7.1 3.4 7.1 7.7 0 4.6-3.2 8.1-7.1 8.1-3.9 0-7.1-3.5-7.1-8.1zm-25.8.5c0 6.9 4.5 10.5 10.4 10.5 4.1 0 6.5-1.8 6.5-1.8h.1v1.9h2.8v-9.1c0-1.2-.5-1.7-1.7-1.7h-3.4v2.8h1.4c.4 0 .7.3.7.7v1.8s-2.1 2.5-5.7 2.5c-4 0-7.3-3.2-7.3-7.6 0-4.9 3.3-8.2 7.2-8.2 3.4 0 5.7 2.2 5.7 2.2l1.9-2.9s-2.3-2.2-7.7-2.2c-6.5 0-10.9 4.2-10.9 11.1zm-24-.5c0 6.8 4.5 11 10.9 11s10.9-4.2 10.9-11c0-6.5-4.5-10.6-10.9-10.6s-10.9 4.1-10.9 10.6zm3.8 0c0-4.3 3.2-7.7 7.1-7.7 3.9 0 7.1 3.4 7.1 7.7 0 4.6-3.2 8.1-7.1 8.1-3.9 0-7.1-3.5-7.1-8.1zM12.1 30c0 1.3.6 1.8 2 1.8h9.6c1.6 0 2.2-.5 2.2-1.8v-3.2h-3.8v1.4c0 .4-.3.7-.7.7h-4.8c-.4 0-.7-.3-.7-.7V12c0-1.2-.6-1.8-2-1.8h-3.8v2.9h1.3c.5 0 .7.3.7.7V30z"/></svg>

<svg xmlns="http://www.w3.org/2000/svg" xmlns:xlink="http://www.w3.org/1999/xlink" viewBox="0 0 104 43" style="background-color:#ffffff00" version="1.1" xml:space="preserve" x="0px" y="0px" width="104px" height="43px"><g><path d="M 1 1 L 103 1 L 103 42 L 1 42 L 1 1 ZM 0 0 L 0 43 L 104 43 L 104 0 L 0 0 ZM 72.1 20.8 C 72.1 27.6 76.6 31.8 83 31.8 C 89.4 31.8 93.9 27.6 93.9 20.8 C 93.9 14.3 89.4 10.2 83 10.2 C 76.6 10.2 72.1 14.3 72.1 20.8 ZM 75.9 20.8 C 75.9 16.5 79.1 13.1 83 13.1 C 86.9 13.1 90.1 16.5 90.1 20.8 C 90.1 25.4 86.9 28.9 83 28.9 C 79.1 28.9 75.9 25.4 75.9 20.8 ZM 50.1 21.3 C 50.1 28.2 54.6 31.8 60.5 31.8 C 64.6 31.8 67 30 67 30 L 67.1 30 C 67.1 30 67.1 30.4 67.1 30.9 L 67.1 31.9 L 69.9 31.9 L 69.9 22.8 C 69.9 21.6 69.4 21.1 68.2 21.1 L 64.8 21.1 L 64.8 23.9 L 66.2 23.9 C 66.6 23.9 66.9 24.2 66.9 24.6 L 66.9 26.4 C 66.9 26.4 64.8 28.9 61.2 28.9 C 57.2 28.9 53.9 25.7 53.9 21.3 C 53.9 16.4 57.2 13.1 61.1 13.1 C 64.5 13.1 66.8 15.3 66.8 15.3 L 68.7 12.4 C 68.7 12.4 66.4 10.2 61 10.2 C 54.5 10.2 50.1 14.4 50.1 21.3 ZM 26.1 20.8 C 26.1 27.6 30.6 31.8 37 31.8 C 43.4 31.8 47.9 27.6 47.9 20.8 C 47.9 14.3 43.4 10.2 37 10.2 C 30.6 10.2 26.1 14.3 26.1 20.8 ZM 29.9 20.8 C 29.9 16.5 33.1 13.1 37 13.1 C 40.9 13.1 44.1 16.5 44.1 20.8 C 44.1 25.4 40.9 28.9 37 28.9 C 33.1 28.9 29.9 25.4 29.9 20.8 ZM 12.1 30 C 12.1 31.3 12.7 31.8 14.1 31.8 L 23.7 31.8 C 25.3 31.8 25.9 31.3 25.9 30 L 25.9 26.8 L 22.1 26.8 L 22.1 28.2 C 22.1 28.6 21.8 28.9 21.4 28.9 L 16.6 28.9 C 16.2 28.9 15.9 28.6 15.9 28.2 L 15.9 12 C 15.9 10.8 15.3 10.2 13.9 10.2 L 10.1 10.2 L 10.1 13.1 L 11.4 13.1 C 11.9 13.1 12.1 13.4 12.1 13.8 L 12.1 30 Z" fill="#000000"/></g></svg>
